Numix-Light/scalable/status/network-wireless-acquiring-symbolic.svg

<?xml version="1.0" encoding="UTF-8" standalone="no"?>
<svg
   xmlns:dc="http://purl.org/dc/elements/1.1/"
   xmlns:cc="http://creativecommons.org/ns#"
   xmlns:rdf="http://www.w3.org/1999/02/22-rdf-syntax-ns#"
   xmlns:svg="http://www.w3.org/2000/svg"
   xmlns="http://www.w3.org/2000/svg"
   xmlns:sodipodi="http://sodipodi.sourceforge.net/DTD/sodipodi-0.dtd"
   xmlns:inkscape="http://www.inkscape.org/namespaces/inkscape"
   viewBox="0 0 16 16"
   style="enable-background:new"
   id="svg2"
   version="1.1"
   inkscape:version="0.91 r"
   sodipodi:docname="network-wireless-acquiring-symbolic.svg">
  <metadata
     id="metadata20">
    <rdf:RDF>
      <cc:Work
         rdf:about="">
        <dc:format>image/svg+xml</dc:format>
        <dc:type
           rdf:resource="http://purl.org/dc/dcmitype/StillImage" />
      </cc:Work>
    </rdf:RDF>
  </metadata>
  <defs
     id="defs18" />
  <sodipodi:namedview
     pagecolor="#ffffff"
     bordercolor="#666666"
     borderopacity="1"
     objecttolerance="10"
     gridtolerance="10"
     guidetolerance="10"
     inkscape:pageopacity="0"
     inkscape:pageshadow="2"
     inkscape:window-width="1920"
     inkscape:window-height="1056"
     id="namedview16"
     showgrid="true"
     inkscape:zoom="29.5"
     inkscape:cx="2.3431458"
     inkscape:cy="7.3137085"
     inkscape:window-x="0"
     inkscape:window-y="24"
     inkscape:window-maximized="1"
     inkscape:current-layer="svg2">
    <inkscape:grid
       type="xygrid"
       id="grid4159" />
  </sodipodi:namedview>
  <g
     style="enable-background:new"
     id="g4153">
    <path
       style="color:#000000;line-height:normal;opacity:0.4;fill:#353535;fill-opacity:1"
       d="M 8 0.77734375 C 5.057692 0.77734375 2.3123295 1.7932412 0 3.5527344 L 1.0117188 5 L 14.988281 5 L 16 3.5527344 C 13.687668 1.7932412 10.942312 0.77734375 8 0.77734375 z M 3.8066406 9 L 8 15 L 12.193359 9 L 3.8066406 9 z "
       id="path18" />
  </g>
  <path
     inkscape:connector-curvature="0"
     id="path6"
     d="M 5,6 C 4.44772,6 4,6.44772 4,7 4,7.55228 4.44772,8 5,8 5.55228,8 6,7.55228 6,7 6,6.44772 5.55228,6 5,6 Z M 8,6 C 7.44772,6 7,6.44772 7,7 7,7.55228 7.44772,8 8,8 8.55228,8 9,7.55228 9,7 9,6.44772 8.55228,6 8,6 Z m 3,0 c -0.55229,0 -1,0.44772 -1,1 0,0.55228 0.44771,1 1,1 0.55229,0 1,-0.44772 1,-1 0,-0.55228 -0.44771,-1 -1,-1 z"
     style="fill:#353535" />
</svg>

<svg xmlns="http://www.w3.org/2000/svg" viewBox="0 0 16 16" style="enable-background:new">
 <g>
  <path d="m 8 0.777 c -2.942 0 -5.688 1.016 -8 2.775 l 1.012 1.447 l 13.977 0 l 1.012 -1.447 c -2.312 -1.759 -5.058 -2.775 -8 -2.775 z m -4.193 8.223 l 4.193 6 l 4.193 -6 l -8.387 0 z" style="fill:#353535;opacity:0.4;fill-opacity:1;color:#000"/>
 </g>
 <path d="m 5 6 c -0.552 0 -1 0.448 -1 1 0 0.552 0.448 1 1 1 0.552 0 1 -0.448 1 -1 0 -0.552 -0.448 -1 -1 -1 m 3 0 c -0.552 0 -1 0.448 -1 1 0 0.552 0.448 1 1 1 0.552 0 1 -0.448 1 -1 0 -0.552 -0.448 -1 -1 -1 m 3 0 c -0.552 0 -1 0.448 -1 1 0 0.552 0.448 1 1 1 0.552 0 1 -0.448 1 -1 0 -0.552 -0.448 -1 -1 -1 z" style="fill:#353535"/>
</svg>
